X: 1
T: Keep The Old Ark Rolling ~ & other names
M: 12/8
L: 1/8
R: breakdown
Z: Contributed 2017-05-07 23:01:36 by Jim Gaskins fiddleji@comcast.net
K: Cmaj
|: G2 GA GFEF | GccB c2 cd | egge dfed | cedc ABcA |
G2 GA GFEF | GccB c2 cd | egge dfed |[1 c4 c4 :|[2 c2 cB cdef ||
|: gece gege | fefg a2 gf | egge dfed | cedc ABcA |
G2 GA GFEF | GccB c2 cd | egge dfed |[1 c2 cB cdef :|[2 c4 c4 |]

K: DMaj
|: A2 AB AGFG | Addc d2 de | faaf egfe | dfed BcdB |
A2 AB AGFG | Addc d2 de | faaf egfe |[1 d4 d4 :|[2 d2 dc defg ||
|: afdf afaf | gfga b2 ag | faaf egfe | dfed BcdB |
A2 AB AGFG | Addc d2 de | faaf egfe |[1 d2 dc defg :|[2 d4 d4 |]

